!!!!SEGMENT: pl-cz--ii-240--003_zeidler-jozef--stabat-mater-quis-est-homo.krn
!!!cenid: 18xx:305
!!!COM: Zeidler, Józef
!!!COM-rismid: pe30003401
!!!CDT: ~1744-1806
!!!CNT: Polish
!!!OTL: Stabat Mater - Quis est homo
!!!PDT: 1840
!!!AGN: Sacred
!!!SMS-siglum: PL-CZ
!!!SMS-shelfmark: II-240
!!!SMS-shelfwork: 001-003 M
!!!NIFC-rismid:
!!!URL-scan: http://repozytorium.nifc.pl/skany/pl-cz-nut--ii-240
!!!ONB-nifc: UWAGA: części: Stabat Mater, Quae merebat, Quis est homo, Quis non posset, Eja Mater, Fac me vere, Virgo virginum praeclara, Inflammatus, Quando corpus morietur, Amen
**kern	**fba	**dynam	**kern	**dynam	**kern	**dynam	**kern	**dynam	**kern	**text	**kern	**kern	**kern	**kern	**kern	**kern	**kern
*part12	*	*part12	*part11	*part11	*part10	*part10	*part9	*part9	*part8	*part8	*part7	*part6	*part5	*part4	*part3	*part2	*part1
*staff12	*	*	*staff11	*	*staff10	*	*staff9	*	*staff8	*staff8	*staff7	*staff6	*staff5	*staff4	*staff3	*staff2	*staff1
*I"Organo	*	*	*I"Viola	*	*I"Violin 2do	*	*I"Violino 1mo	*	*I"Basso	*	*I"Tenore	*I"Alto	*I"Soprano	*I"Corno secondo in F	*I"Corno primo F	*I"Clarinetto secondo in B♭	*I"Clarinetto primo in B♭
*I'org	*	*	*I'vla	*	*I'vl 2	*	*I'vl 1	*	*I'B	*	*I'T	*I'A	*I'S	*I'cor 2	*I'cor 1	*I'cl 2	*I'cl 1
*clefF4	*	*	*clefC3	*	*clefG2	*	*clefG2	*	*clefF4	*	*clefC4	*clefC3	*clefC1	*clefG2	*clefG2	*clefG2	*clefG2
*	*	*	*	*	*	*	*	*	*	*	*	*	*	*ITrd4c7	*ITrd4c7	*ITrd1c2	*ITrd1c2
*k[b-]	*	*	*k[b-]	*	*k[b-]	*	*k[b-]	*	*k[b-]	*	*k[b-]	*k[b-]	*k[b-]	*k[b-]	*k[b-]	*k[b-]	*k[b-]
*M4/4	*	*	*M4/4	*	*M4/4	*	*M4/4	*	*M4/4	*	*M4/4	*M4/4	*M4/4	*M4/4	*M4/4	*M4/4	*M4/4
*met(c)	*	*	*met(c)	*	*met(c)	*	*met(c)	*	*met(c)	*	*met(c)	*met(c)	*met(c)	*met(c)	*met(c)	*met(c)	*met(c)
=1	=1	=1	=1	=1	=1	=1	=1	=1	=1	=1	=1	=1	=1	=1	=1	=1	=1
*8\right	*	*	*	*	*	*	*	*below	*	*	*	*	*	*	*	*	*
!LO:SIC:o=akolada z basem:v	!	!	!	!	!	!	!LO:SIC:o=akolada z basem:v	!	!LO:SIC:o=akolada z organami:v	!	!	!	!	!	!	!	!
!LO:TX:a:i:t=Recitativo.	!	!	!LO:TX:a:i:t=Recitativo	!	!LO:TX:a:i:t=Recitativo Bas Solo	!	!LO:TX:a:i:t=Recitativo	!	!LO:TX:a:i:t=Recitativo.	!	!	!	!	!	!	!	!
8F\L	.	.	8f\L	f	8a/L	f	8ff\L	f	2r	.	1ryy	1ryy	1ryy	1ryy	1ryy	1ryy	1ryy
8F\	.	.	8f\	.	8a/	.	8cc\	.	.	.	.	.	.	.	.	.	.
8F\	.	.	8f\	.	8a/	.	8cc\	.	.	.	.	.	.	.	.	.	.
8F\J	.	.	8f\J	.	8a/J	.	8cc\J	.	.	.	.	.	.	.	.	.	.
4F\	.	.	4f\	.	4a/	.	4cc\	.	4r	.	.	.	.	.	.	.	.
4r	.	.	4r	.	4r	.	4r	.	8r	.	.	.	.	.	.	.	.
*	*	*	*	*	*	*	*	*	*8\right	*	*	*	*	*	*	*	*
.	.	.	.	.	.	.	.	.	8F\	Quis	.	.	.	.	.	.	.
=2	=2	=2	=2	=2	=2	=2	=2	=2	=2	=2	=2	=2	=2	=2	=2	=2	=2
*	*	*	*	*	*	*	*	*	*4\right	*	*	*	*	*	*	*	*
4r	.	.	1r	.	1ryy	.	1r	.	4A\	est	1ryy	1ryy	1ryy	1ryy	1ryy	1ryy	1ryy
*4\right	*	*	*	*	*	*	*	*	*	*	*	*	*	*	*	*	*
4E-X\	4 2	.	.	.	.	.	.	.	8r	.	.	.	.	.	.	.	.
*	*	*	*	*	*	*	*	*	*	*ij	*	*	*	*	*	*	*
.	.	.	.	.	.	.	.	.	8G\	quis	.	.	.	.	.	.	.
4r	.	.	.	.	.	.	.	.	4c\	est	.	.	.	.	.	.	.
4D\	7 #	.	.	.	.	.	.	.	8r	.	.	.	.	.	.	.	.
*	*	*	*	*	*	*	*	*	*16\right	*	*	*	*	*	*	*	*
.	.	.	.	.	.	.	.	.	16d\	quis	.	.	.	.	.	.	.
.	.	.	.	.	.	.	.	.	16A\	est	.	.	.	.	.	.	.
=3	=3	=3	=3	=3	=3	=3	=3	=3	=3	=3	=3	=3	=3	=3	=3	=3	=3
*	*	*	*	*	*	*	*	*	*	*Xij	*	*	*	*	*	*	*
4r	.	.	4r	.	4r	f	4r	.	8B-\	ho-	1ryy	1ryy	1ryy	1ryy	1ryy	1ryy	1ryy
.	.	.	.	.	.	.	.	.	8G\	-mo	.	.	.	.	.	.	.
8G\L	.	.	8d\L	.	8B-/L	.	8gL\	.	4r	.	.	.	.	.	.	.	.
8G\	.	.	8g\	.	8d/J	.	8b-\J	.	.	.	.	.	.	.	.	.	.
8G\	.	.	8d\	.	8B-/L	.	8gL\	.	4r	.	.	.	.	.	.	.	.
8G\J	.	.	8d\J	.	8B-/J	.	8gJ\	.	.	.	.	.	.	.	.	.	.
4GG/	.	.	4d\	.	4B-/	.	4g\	.	8r	.	.	.	.	.	.	.	.
.	.	.	.	.	.	.	.	.	16B-\	quis	.	.	.	.	.	.	.
.	.	.	.	.	.	.	.	.	16G\	est	.	.	.	.	.	.	.
=4	=4	=4	=4	=4	=4	=4	=4	=4	=4	=4	=4	=4	=4	=4	=4	=4	=4
2G\	3	.	1r	.	1r	.	1r	.	8c#X\	ho-	1ryy	1ryy	1ryy	1ryy	1ryy	1ryy	1ryy
.	4	.	.	.	.	.	.	.	8c#\	-mo	.	.	.	.	.	.	.
.	2	.	.	.	.	.	.	.	8.c#\	qui	.	.	.	.	.	.	.
.	.	.	.	.	.	.	.	.	16c#\	non	.	.	.	.	.	.	.
!LO:PB:g=original	!	!	!	!	!	!	!	!	!LO:PB:g=original	!	!	!	!	!	!	!	!
2Fn\	6	.	.	.	.	.	.	.	8d\	flo-	.	.	.	.	.	.	.
.	.	.	.	.	.	.	.	.	8D\	-ret	.	.	.	.	.	.	.
.	.	.	.	.	.	.	.	.	8r	.	.	.	.	.	.	.	.
.	.	.	.	.	.	.	.	.	16d\	Chris-	.	.	.	.	.	.	.
.	.	.	.	.	.	.	.	.	16Bn\	-ti	.	.	.	.	.	.	.
=5	=5	=5	=5	=5	=5	=5	=5	=5	=5	=5	=5	=5	=5	=5	=5	=5	=5
!	!	!	!	!	!LO:PB:g=original	!	!LO:PB:g=original	!	!	!	!	!	!	!	!	!	!
4E\	7 #	.	1r	.	1r	.	1r	.	8G#X\	Ma-	1ryy	1ryy	1ryy	1ryy	1ryy	1ryy	1ryy
.	.	.	.	.	.	.	.	.	8G#\	-trem	.	.	.	.	.	.	.
4r	.	.	.	.	.	.	.	.	8.Bn\	si-	.	.	.	.	.	.	.
.	.	.	.	.	.	.	.	.	16d\	-vi-	.	.	.	.	.	.	.
4r	.	.	.	.	.	.	.	.	16d\LL	-de-	.	.	.	.	.	.	.
.	.	.	.	.	.	.	.	.	16c#X\JJ	.	.	.	.	.	.	.	.
.	.	.	.	.	.	.	.	.	8c#\	-ret	.	.	.	.	.	.	.
4AA/	#	.	.	.	.	.	.	.	8r	.	.	.	.	.	.	.	.
.	.	.	.	.	.	.	.	.	8A\	in	.	.	.	.	.	.	.
=6	=6	=6	=6	=6	=6	=6	=6	=6	=6	=6	=6	=6	=6	=6	=6	=6	=6
!	!	!	!LO:PB:g=original	!	!	!	!	!	!	!	!	!	!	!	!	!	!
2r	.	.	2r	.	2r	.	2r	.	4d\	tan-	1ryy	1ryy	1ryy	1ryy	1ryy	1ryy	1ryy
.	.	.	.	.	.	.	.	.	8B-\L	-to	.	.	.	.	.	.	.
.	.	.	.	.	.	.	.	.	8A\J	sup-	.	.	.	.	.	.	.
!LO:TX:a:i:t=Andante	!	!	!	!	!	!LO:DY:t=ffo	!	!LO:DY:t=ffor	!LO:TX:a:t=Andante	!	!	!	!	!	!	!	!
8r	.	.	8r	.	8r	ff	8r	ff	4.G#X\	-pli-	.	.	.	.	.	.	.
8BB-X/L	6\	.	8B-/L	.	8G#X/'L	.	8d/'L	.	.	.	.	.	.	.	.	.	.
*	*	*	*	*	*	*	*Xtuplet	*	*	*	*	*	*	*	*	*	*
!	!	!	!LO:TX:b:B:t=andante	!	!LO:TX:a:i:t=Andante	!	!LO:TX:a:i:t=Andante	!	!	!	!	!	!	!	!	!	!
8BB-/	.	.	8B-/	.	8G#X/'	.	8d/'	.	.	.	.	.	.	.	.	.	.
8BB-/J	.	.	8B-/J	.	8G#/'J	.	8d/'J	.	8G#\	-ci-	.	.	.	.	.	.	.
=7	=7	=7	=7	=7	=7	=7	=7	=7	=7	=7	=7	=7	=7	=7	=7	=7	=7
!LO:N:vis=4	!	!	!	!	!	!	!	!	!	!	!	!	!	!	!	!	!LO:TX:a:i:t=Andante
8AA/	#	.	8A/	.	16.A/'LL	.	16.c#X/'LL	.	4A\	-o	1ryy	1ryy	1ryy	1ryy	1ryy	1ryy	1ryy
.	.	.	.	.	32A/'K	.	32c#/'K	.	.	.	.	.	.	.	.	.	.
8r	.	.	8r	.	16.B-/'	.	16.d/'	.	.	.	.	.	.	.	.	.	.
.	.	.	.	.	32c/'JJk	.	32e/'JJk	.	.	.	.	.	.	.	.	.	.
8AA/	6 4	.	8A/	.	16.d/'LL	.	16.f/'LL	.	8r	.	.	.	.	.	.	.	.
.	.	.	.	.	32e/'K	.	32g/'K	.	.	.	.	.	.	.	.	.	.
8r	.	.	8r	.	16.f/'	.	16.a/'	.	8d\	quis	.	.	.	.	.	.	.
.	.	.	.	.	32d/'JJk	.	32f/'JJk	.	.	.	.	.	.	.	.	.	.
!LO:PB:g=original	!	!	!	!	!	!	!	!	!LO:PB:g=original	!	!	!	!	!	!	!	!
8AA/	5 #	.	8A/	.	16.c/'LL	.	16.e/'LL	.	4c#X\	est	.	.	.	.	.	.	.
.	.	.	.	.	32A/'K	.	32c#/'K	.	.	.	.	.	.	.	.	.	.
8r	.	.	8r	.	16.B-/'	.	16.d/'	.	.	.	.	.	.	.	.	.	.
.	.	.	.	.	32c/'JJk	.	32e/'JJk	.	.	.	.	.	.	.	.	.	.
8AA/	6 4	.	8A/	.	16.d/'LL	.	16.f/'LL	.	8r	.	.	.	.	.	.	.	.
.	.	.	.	.	32e/'K	.	32g/'K	.	.	.	.	.	.	.	.	.	.
8r	.	.	8r	.	16.f/'	.	16.a/'	.	8d\	quis	.	.	.	.	.	.	.
.	.	.	.	.	32d/'JJk	.	32f/'JJk	.	.	.	.	.	.	.	.	.	.
=8	=8	=8	=8	=8	=8	=8	=8	=8	=8	=8	=8	=8	=8	=8	=8	=8	=8
!	!	!	!	!	!	!	!LO:PB:g=original	!	!	!	!	!	!	!	!	!	!
8AA/	5 #	.	8A/	.	16.c#X/'LL	.	16.e/'LL	.	4c#X\	est	1ryy	1ryy	1ryy	1ryy	1ryy	1ryy	1ryy
.	.	.	.	.	32A/'K	.	32c#X/'K	.	.	.	.	.	.	.	.	.	.
8r	.	.	8r	.	16.B-/'	.	16.d/'	.	.	.	.	.	.	.	.	.	.
.	.	.	.	.	32c#/'JJk	.	32e/'JJk	.	.	.	.	.	.	.	.	.	.
!	!	!	!	!	!LO:PB:g=original	!	!	!	!	!	!	!	!	!	!	!	!
8AA/	6 4	.	8A/	.	16.d/'LL	.	16.f/'LL	.	8r	.	.	.	.	.	.	.	.
.	.	.	.	.	32e/'K	.	32g/'K	.	.	.	.	.	.	.	.	.	.
8r	.	.	8r	.	16.f/'	.	16.a/'	.	8D\	quis	.	.	.	.	.	.	.
.	.	.	.	.	32d/'JJk	.	32f/'JJk	.	.	.	.	.	.	.	.	.	.
!LO:SIC:o=	!	!	!	!	!	!	!	!	!	!	!	!	!	!	!	!	!
4AA/;	5 #	.	4A/;	.	4c#/;	.	4e/;	.	4A\;	est	.	.	.	.	.	.	.
!LO:TX:a:i:t=Recitativo.	!	!	!LO:TX:b:i:t=Recitativo.	!	!LO:TX:a:i:t=Recitativo	!	!LO:TX:b:i:t=Recitativo	!	!LO:TX:a:i:t=Recitativo.	!	!	!	!	!	!	!	!
4r	.	.	4r	.	4r	.	4r	.	8.A\	quis	.	.	.	.	.	.	.
.	.	.	.	.	.	.	.	.	16B-\	est	.	.	.	.	.	.	.
!	!	!	!	!	!	!	!	!	!LO:SIC:t=custos 8cn:v	!	!	!	!	!	!	!	!
=9	=9	=9	=9	=9	=9	=9	=9	=9	=9	=9	=9	=9	=9	=9	=9	=9	=9
!LO:LB:g=original	!	!	!	!	!	!	!	!	!LO:LB:g=original	!	!	!	!	!	!	!	!
2r	.	.	2r	.	2r	.	2r	.	8cn\	ho-	1ryy	1ryy	1ryy	1ryy	1ryy	1ryy	1ryy
.	.	.	.	.	.	.	.	.	8c\	-mo	.	.	.	.	.	.	.
.	.	.	.	.	.	.	.	.	8.c\	qui	.	.	.	.	.	.	.
.	.	.	.	.	.	.	.	.	16d\	non	.	.	.	.	.	.	.
4r	.	.	4r	.	4r	.	4r	.	8e-X\	fle-	.	.	.	.	.	.	.
.	.	.	.	.	.	.	.	.	8e-\	-ret	.	.	.	.	.	.	.
(<4F#X\	-7	.	4f#X\^	.	4a/^>	.	4ee-X\^	.	8r	.	.	.	.	.	.	.	.
.	.	.	.	.	.	.	.	.	16e-\	Chri-	.	.	.	.	.	.	.
.	.	.	.	.	.	.	.	.	16e-\	-sti	.	.	.	.	.	.	.
=10	=10	=10	=10	=10	=10	=10	=10	=10	=10	=10	=10	=10	=10	=10	=10	=10	=10
2F\)	6	.	2r	.	2r	.	2r	.	8.d\	Mat-	1ryy	1ryy	1ryy	1ryy	1ryy	1ryy	1ryy
.	.	.	.	.	.	.	.	.	16A\	-rem	.	.	.	.	.	.	.
.	.	.	.	.	.	.	.	.	8B-\	si	.	.	.	.	.	.	.
.	.	.	.	.	.	.	.	.	8c\	vi-	.	.	.	.	.	.	.
4r	.	.	4r	.	4r	.	4r	.	16B-\L	-de-	.	.	.	.	.	.	.
.	.	.	.	.	.	.	.	.	16A\J	.	.	.	.	.	.	.	.
.	.	.	.	.	.	.	.	.	8G\	-ret	.	.	.	.	.	.	.
4G\	.	.	4g\^	.	4b-\^>	.	4dd\^	.	8r	.	.	.	.	.	.	.	.
.	.	.	.	.	.	.	.	.	8G\	in	.	.	.	.	.	.	.
=11	=11	=11	=11	=11	=11	=11	=11	=11	=11	=11	=11	=11	=11	=11	=11	=11	=11
!	!	!	!LO:PB:g=original	!	!LO:LB:g=original	!	!LO:PB:g=original	!	!	!	!	!	!	!	!	!	!
2r	.	.	1r	.	1r	.	1r	.	4B-\	tan-	1ryy	1ryy	1ryy	1ryy	1ryy	1ryy	1ryy
.	.	.	.	.	.	.	.	.	8A\	-to	.	.	.	.	.	.	.
.	.	.	.	.	.	.	.	.	8G\	sup-	.	.	.	.	.	.	.
2G\	4#	.	.	.	.	.	.	.	16c#X\	-pli-	.	.	.	.	.	.	.
.	.	.	.	.	.	.	.	.	16c#\	-ci-	.	.	.	.	.	.	.
.	.	.	.	.	.	.	.	.	8c#\	-o	.	.	.	.	.	.	.
.	.	.	.	.	.	.	.	.	8r	.	.	.	.	.	.	.	.
.	.	.	.	.	.	.	.	.	8A\	in	.	.	.	.	.	.	.
=12	=12	=12	=12	=12	=12	=12	=12	=12	=12	=12	=12	=12	=12	=12	=12	=12	=12
!LO:PB:g=original	!	!	!	!	!	!	!	!	!LO:PB:g=original	!	!	!	!	!	!	!	!
!LO:TX:a:i:t=Andante	!	!	!LO:TX:a:i:t=Andante	!	!LO:TX:a:i:t=Andante.	!	!	!	!LO:TX:a:t=Andante	!	!	!	!	!	!	!	!LO:TX:a:i:t=Andante
4F#X\	6	.	2r	.	2r	.	2r	.	4d\	tan-	1ryy	1ryy	1ryy	1ryy	1ryy	1ryy	1ryy
4G\	.	.	.	.	.	.	.	.	16cn\LL	-to	.	.	.	.	.	.	.
.	.	.	.	.	.	.	.	.	16B-\JJ	.	.	.	.	.	.	.	.
.	.	.	.	.	.	.	.	.	16A\LL	sup-	.	.	.	.	.	.	.
.	.	.	.	f	.	.	.	.	16G\JJ	.	.	.	.	.	.	.	.
!LO:SIC:o=niepotrzebna kreska taktowa:v	!	!	!	!	!LO:DY:t=ffo	!	!LO:DY:t=ffor	!	!LO:SIC:o=niepotrzebna kreska taktowa:v	!	!	!	!	!	!	!	!
8D\	#	.	8d\	.	32r	ff	32r	ff	16d\	-pli-	.	.	.	.	.	.	.
!	!	!	!	!	!	!	!LO:TX:a:i:t=Andante	!	!	!	!	!	!	!	!	!	!
!	!	!	!	!	!LO:TX:a:t=P:problem:mixed beam	!	!LO:TX:a:t=P:problem:mixed beam	!	!	!	!	!	!	!	!	!	!
.	.	.	.	.	16.dLL/	.	16.d/LL	.	.	.	.	.	.	.	.	.	.
.	.	.	.	.	.	.	.	.	16D\	-ci-	.	.	.	.	.	.	.
8r	.	.	8r	.	16.dd\	.	16.dd\	.	8D\	-o	.	.	.	.	.	.	.
.	.	.	.	.	32ccJJk\	.	32ccJJk\	.	.	.	.	.	.	.	.	.	.
8D\	6 4	.	8d\	.	16.b-'LL\	.	16.b-'LL\	.	8r	.	.	.	.	.	.	.	.
.	.	.	.	.	32dd\'K	.	32dd\'K	.	.	.	.	.	.	.	.	.	.
8r	.	.	8r	.	16.b-\'	.	16.b-\'	.	16B-\	quis	.	.	.	.	.	.	.
.	.	.	.	.	.	.	.	.	16G\	est	.	.	.	.	.	.	.
.	.	.	.	.	32g/'JJk	.	32g/'JJk	.	.	.	.	.	.	.	.	.	.
=13	=13	=13	=13	=13	=13	=13	=13	=13	=13	=13	=13	=13	=13	=13	=13	=13	=13
!	!	!	!	!	!	!	!LO:TX:a:t=P:problem:mixed beam	!	!	!	!	!	!	!	!	!	!
8D\	5 #	.	8d\	.	16.f#X'LL/	.	16.f#X'LL/	.	8d\	ho-	1ryy	1ryy	1ryy	1ryy	1ryy	1ryy	1ryy
!	!	!	!	!	!LO:TX:a:t=P:problem:mixed beam	!	!	!	!	!	!	!	!	!	!	!	!
.	.	.	.	.	32d'K/	.	32d'K/	.	.	.	.	.	.	.	.	.	.
8r	.	.	8r	.	16.dd'\	.	16.dd'\	.	8D\	-mo	.	.	.	.	.	.	.
.	.	.	.	.	32cc'JJk\	.	32cc'JJk\	.	.	.	.	.	.	.	.	.	.
8D\	6 4	.	8d\	.	16.b-\'LL	.	16.b-\'LL	.	8r	.	.	.	.	.	.	.	.
.	.	.	.	.	32dd\'K	.	32dd\'K	.	.	.	.	.	.	.	.	.	.
8r	.	.	8r	.	16.b-\'	.	16.b-\'	.	16B-\LL	quis	.	.	.	.	.	.	.
.	.	.	.	.	.	.	.	.	16G\JJ	.	.	.	.	.	.	.	.
.	.	.	.	.	32g/'JJk	.	32g/'JJk	.	.	.	.	.	.	.	.	.	.
!	!	!	!	!	!LO:TX:a:t=P:problem:mixed beam	!	!	!	!	!	!	!	!	!	!	!	!
8D\	5 #	.	8d\	.	16.f#/'LL	.	16.f#X/'LL	.	4d\	est	.	.	.	.	.	.	.
.	.	.	.	.	32d/'K	.	32d/'K	.	.	.	.	.	.	.	.	.	.
8r	.	.	8r	.	16.dd\'	.	16.dd\'	.	.	.	.	.	.	.	.	.	.
.	.	.	.	.	32cc\'JJk	.	32cc\'JJk	.	.	.	.	.	.	.	.	.	.
8D\	6 4	.	8d\	.	16.b-\'LL	.	16.b-\'LL	.	8r	.	.	.	.	.	.	.	.
.	.	.	.	.	32dd\'K	.	32dd\'K	.	.	.	.	.	.	.	.	.	.
8r	.	.	8r	.	16.b-\'	.	16.b-\'	.	16B-\	qui	.	.	.	.	.	.	.
.	.	.	.	.	.	.	.	.	16G\	non	.	.	.	.	.	.	.
.	.	.	.	.	32g#X/'JJk	.	32g/'JJk	.	.	.	.	.	.	.	.	.	.
=14	=14	=14	=14	=14	=14	=14	=14	=14	=14	=14	=14	=14	=14	=14	=14	=14	=14
!	!	!	!	!	!LO:PB:g=original	!	!LO:PB:g=original	!	!	!	!	!	!	!	!	!	!
4D\	5 #	.	4d\	.	4d/	.	4d/	.	8d\	fle-	1ryy	1ryy	1ryy	1ryy	1ryy	1ryy	1ryy
.	.	.	.	.	.	.	.	.	8D\	-ret	.	.	.	.	.	.	.
4r	.	.	4r	.	4r	.	4r	.	8r	.	.	.	.	.	.	.	.
.	.	.	.	.	.	.	.	.	8D\	in	.	.	.	.	.	.	.
2r	.	.	2r	.	2r	.	2r	.	4G\	tan-	.	.	.	.	.	.	.
.	.	.	.	.	.	.	.	.	8E-X\	-to	.	.	.	.	.	.	.
.	.	.	.	.	.	.	.	.	8D\	sup-	.	.	.	.	.	.	.
=15	=15	=15	=15	=15	=15	=15	=15	=15	=15	=15	=15	=15	=15	=15	=15	=15	=15
.	.	.	.	.	.	.	.	.	8qqD/	.	.	.	.	.	.	.	.
8r	.	.	8r	f	8r	f	8r	f	4.C#X\	-pli-	1ryy	1ryy	1ryy	1ryy	1ryy	1ryy	1ryy
8E-X\L	6\	.	8e-X\L	.	8c#X/L	.	8gL\	.	.	.	.	.	.	.	.	.	.
8E-\	.	.	8e-\	.	8c#/	.	8g\	.	.	.	.	.	.	.	.	.	.
8E-\J	.	.	8e-\J	.	8c#/J	.	8gJ\	.	8C#\	-ci-	.	.	.	.	.	.	.
2D\	#	.	2d\	.	2A/	.	2f#X/	.	2C#\	-o	.	.	.	.	.	.	.
==	==	==	==	==	==	==	==	==	==	==	==	==	==	==	==	==	==
*-	*-	*-	*-	*-	*-	*-	*-	*-	*-	*-	*-	*-	*-	*-	*-	*-	*-
!!!system-decoration: s1,s2,s3,s4,s5,s6,s7,s8,s9,s10,s11,s12
!!!RDF**kern: > = above
!!!RDF**kern: < = below
!!!RDF**dynam: f = for
!!!ENC: Leszek Kubiak
!!!END: 2020-05-18
